vectors/bitstamp/bitstamp.svg

<svg version="1.1" xmlns="http://www.w3.org/2000/svg" xmlns:xlink="http://www.w3.org/1999/xlink" viewBox="0 0 24 24"><title>Bitstamp icon</title><path fill-rule="evenodd" clip-rule="evenodd" d="M13.4322 10.6183C13.014 10.5522 12.5844 10.5753 12.1624 10.5715C11.5355 10.5715 10.9086 10.5796 10.2849 10.5677C10.2774 11.7022 10.2774 12.8364 10.2849 13.9704C11.0376 13.9624 11.7871 13.9667 12.5382 13.9667C12.9366 13.9667 13.3446 13.9817 13.7263 13.8387C13.9838 13.7466 14.2137 13.5906 14.3945 13.3855C14.5753 13.1803 14.7012 12.9326 14.7602 12.6656C14.8489 12.2167 14.8027 11.7253 14.5452 11.3382C14.3011 10.9511 13.8736 10.707 13.4322 10.6183V10.6183Z" fill="#149F49"/>
<path fill-rule="evenodd" clip-rule="evenodd" d="M12 0C5.37258 0 0 5.37258 0 12C0 18.6274 5.37258 24 12 24C18.6274 24 24 18.6274 24 12C24 5.37258 18.6274 0 12 0ZM7 14.1022C7.63871 14.1134 8.25 13.707 8.51344 13.1301C8.63592 12.8598 8.68914 12.5632 8.66828 12.2672C8.69516 11.6941 8.41667 11.1097 7.92903 10.7962C7.66021 10.6027 7.32903 10.5274 7.00376 10.5059C7 10.0527 7.00376 9.60376 7 9.15484C7.46828 9.17419 7.92473 8.95753 8.23656 8.6129C8.53801 8.27393 8.69269 7.82922 8.66667 7.37634C8.6129 6.82688 8.29032 6.29624 7.79194 6.04462C7.55161 5.90538 7.27688 5.85484 7.00215 5.84355C6.99409 5.34785 7.00215 4.85645 6.99839 4.36452C9.13118 4.36075 11.264 4.35699 13.4005 4.36452C14.2484 4.41828 15.1081 4.7172 15.7387 5.30161C16.1632 5.69932 16.4483 6.22324 16.5516 6.7957C16.6446 7.48065 16.5828 8.22796 16.1683 8.80484C15.9054 9.21505 15.5027 9.5129 15.0731 9.73763C15.7387 9.99301 16.3349 10.4613 16.6677 11.1C17.1247 11.9753 17.1129 13.0823 16.6215 13.9376C16.2844 14.5376 15.7194 14.9903 15.0887 15.2538C14.4581 15.5172 13.757 15.6097 13.0758 15.6022H7.00054C6.99893 15.1005 7.00269 14.6011 6.99892 14.1022H7ZM17 19.6333C15.6414 19.6489 14.279 19.6376 12.914 19.6414C10.9435 19.6376 8.97366 19.6489 7.00323 19.6333C6.9914 19.0995 6.9914 18.5613 7.00323 18.0231C9.06237 18.0075 11.122 18.0231 13.186 18.0194C14.4559 18.0231 15.7296 18.0075 16.9989 18.0231C17.0091 18.5613 17.0091 19.0995 16.9973 19.6333H17Z" fill="#149F49"/>
<path fill-rule="evenodd" clip-rule="evenodd" d="M12.3216 9.09673C12.6581 9.0892 12.999 9.12791 13.3237 9.02307C13.8581 8.872 14.3382 8.42684 14.4232 7.86178C14.5006 7.39727 14.4119 6.88275 14.0866 6.5263C13.742 6.14297 13.2076 5.95748 12.7006 5.97684H10.2775C10.2812 7.01823 10.2812 8.05533 10.2775 9.09512L12.3216 9.09673Z" fill="#149F49"/>
<path d="M13.0763 15.6C13.7575 15.6075 14.458 15.5226 15.0892 15.2516C15.7204 14.9807 16.2849 14.5355 16.622 13.9355C17.1134 13.0801 17.1252 11.9731 16.6683 11.0979C16.3355 10.4592 15.7392 9.99087 15.0736 9.7355C15.5037 9.51077 15.9059 9.21292 16.1688 8.8027C16.5833 8.22582 16.6451 7.47851 16.5521 6.79356C16.4488 6.2211 16.1637 5.69718 15.7392 5.29947C15.1075 4.71507 14.2473 4.41668 13.4011 4.36238C11.2645 4.35485 9.1317 4.35861 6.9989 4.36238C7.00266 4.85431 6.9946 5.34571 7.00267 5.84141C7.2774 5.8527 7.55213 5.90324 7.79245 6.04249C8.29137 6.2941 8.61288 6.82474 8.66718 7.37421C8.69321 7.82708 8.53852 8.27179 8.23707 8.61077C7.9231 8.95539 7.46664 9.17206 7.00052 9.1527C7.00428 9.60163 7.00051 10.0506 7.00428 10.5038C7.32955 10.5269 7.66234 10.6006 7.92955 10.7941C8.41718 11.1075 8.69568 11.6919 8.66879 12.2651C8.68965 12.5611 8.63644 12.8577 8.51396 13.128C8.25051 13.7049 7.63922 14.1113 7.00052 14.1C7.00428 14.5989 7.00052 15.0984 7.00052 15.5979L13.0763 15.6ZM14.7602 12.6656C14.7011 12.9326 14.5753 13.1803 14.3945 13.3855C14.2137 13.5906 13.9838 13.7466 13.7263 13.8387C13.3473 13.9817 12.9365 13.9667 12.5381 13.9667C11.7855 13.9667 11.036 13.9624 10.2849 13.9704C10.2774 12.836 10.2774 11.7018 10.2849 10.5678C10.9086 10.5796 11.5355 10.5715 12.1623 10.5715C12.5844 10.5753 13.014 10.5522 13.4322 10.6183C13.8736 10.707 14.2994 10.9511 14.543 11.3382C14.8027 11.7253 14.8489 12.2167 14.7602 12.6656V12.6656ZM10.2774 5.97689H12.7005C13.2075 5.95754 13.7419 6.14302 14.0865 6.52636C14.4118 6.88281 14.5005 7.39732 14.4231 7.86184C14.3381 8.42689 13.858 8.87206 13.3236 9.02313C13.0011 9.12797 12.658 9.08926 12.3215 9.09679H10.2785C10.2812 8.05539 10.2812 7.01829 10.2774 5.97689V5.97689Z" fill="white"/>
<path d="M13.1845 18.0193C11.1216 18.0231 9.06188 18.0075 7.00167 18.0231C6.98984 18.5607 6.98984 19.0983 7.00167 19.6333C8.9721 19.6489 10.942 19.6376 12.9124 19.6413C14.2753 19.6376 15.6377 19.6489 16.9984 19.6333C17.0103 19.0994 17.0103 18.5612 16.9984 18.0231C15.728 18.0075 14.4544 18.0231 13.1845 18.0193V18.0193Z" fill="#73C692"/>
</svg>

<svg xmlns="http://www.w3.org/2000/svg" viewBox="0 0 24 24"><path fill-rule="evenodd" clip-rule="evenodd" d="M13.432 10.618c-.418-.066-.848-.043-1.27-.046-.627 0-1.253.008-1.877-.004a257.3 257.3 0 000 3.402c.753-.008 1.502-.003 2.253-.003.399 0 .807.015 1.188-.128a1.617 1.617 0 001.034-1.173c.089-.45.043-.94-.215-1.328-.244-.387-.671-.631-1.113-.72z" fill="#149F49"/><path fill-rule="evenodd" clip-rule="evenodd" d="M12 0C5.373 0 0 5.373 0 12s5.373 12 12 12 12-5.373 12-12S18.627 0 12 0zM7 14.102c.639.011 1.25-.395 1.513-.972.123-.27.176-.567.155-.863.027-.573-.251-1.157-.739-1.47-.269-.194-.6-.27-.925-.291-.004-.453 0-.902-.004-1.351.468.02.925-.197 1.237-.542.301-.34.456-.784.43-1.237-.054-.55-.377-1.08-.875-1.331-.24-.14-.515-.19-.79-.201-.008-.496 0-.988-.004-1.48 2.133-.003 4.266-.007 6.402 0 .848.054 1.708.353 2.339.938.424.397.71.921.813 1.494.093.685.03 1.432-.384 2.009-.263.41-.665.708-1.095.933.666.255 1.262.723 1.595 1.362.457.875.445 1.982-.046 2.838-.338.6-.903 1.052-1.533 1.316-.63.263-1.332.356-2.013.348H7c-.002-.502.002-1-.002-1.5H7zm10 5.531c-1.359.016-2.721.005-4.086.008-1.97-.003-3.94.008-5.91-.008a36.532 36.532 0 010-1.61c2.058-.015 4.118 0 6.182-.004 1.27.004 2.544-.011 3.813.004.01.538.01 1.076-.002 1.61H17z" fill="#149F49"/><path fill-rule="evenodd" clip-rule="evenodd" d="M12.322 9.097c.336-.008.677.03 1.002-.074.534-.151 1.014-.596 1.1-1.161.077-.465-.012-.98-.337-1.336-.345-.383-.88-.569-1.386-.55h-2.424c.004 1.042.004 2.08 0 3.12h2.045z" fill="#149F49"/><path d="M13.076 15.6c.681.008 1.382-.077 2.013-.348.631-.271 1.196-.716 1.533-1.317.491-.855.503-1.962.046-2.837-.332-.639-.929-1.107-1.594-1.363.43-.224.832-.522 1.095-.932.414-.577.476-1.324.383-2.01A2.706 2.706 0 0015.74 5.3c-.632-.584-1.492-.882-2.338-.937-2.136-.007-4.27-.003-6.402 0 .004.492-.004.984.004 1.48.274.01.55.061.79.2.498.252.82.783.874 1.332.026.453-.128.898-.43 1.237-.314.344-.77.561-1.236.542.003.449 0 .898.003 1.35.326.024.658.098.926.291.487.313.766.898.739 1.471.02.296-.033.593-.155.863-.263.577-.875.983-1.513.972.003.499 0 .998 0 1.498l6.075.002zm1.684-2.934a1.618 1.618 0 01-1.034 1.173c-.379.143-.79.128-1.188.128-.752 0-1.502-.005-2.253.003a257.285 257.285 0 010-3.402c.624.012 1.25.004 1.877.004.422.003.852-.02 1.27.046.442.089.867.333 1.111.72.26.387.306.879.217 1.328zm-4.483-6.69h2.424c.506-.018 1.04.167 1.385.55.326.357.415.871.337 1.336-.085.565-.565 1.01-1.1 1.161-.322.105-.665.066-1.002.074h-2.043a499.17 499.17 0 000-3.12z" fill="#fff"/><path d="M13.184 18.02c-2.062.003-4.122-.012-6.182.003a36.532 36.532 0 000 1.61c1.97.016 3.94.005 5.91.008 1.363-.003 2.726.008 4.086-.008.012-.534.012-1.072 0-1.61-1.27-.015-2.544 0-3.814-.004z" fill="#73C692"/></svg>
